X:19044
T:Xiraldilla (CT 278)
R:Xiraldilla
C:Tradicional
S:Música Tradicional Asturiana, (C) Tello & Tito. Asturies, 2001.
S:http://pagina.de/MusTradAst <telloytito@asturies.org>
N:Xiraldilla, transcrita en Torazo, ayuntamiento de Cabranes.
O:Torazo (Cabranes)
A:Asturies
Z:Cancioneru de Torner 278
M:3/8
L:1/8
Q:3/8=88
W:Cada vez que voi a Llanes
W:y paso pela Estrechura
W:y veo la nieve blanca,
W:m'acuerdo de to hermosura.
W:
W:Yo voi a Llanes,
W:por ver a la mio morena;
W:yo voi a Llanes,
W:anque mio madre nun quiera.
K:G
Bc|d2d|d2d|d2e-|e de|d2e|d2c|
(B3/2A/2)G-|G Bc|d2d|d2d|d2e-|e de|d2e|
d2c|(B3/2A/2) G||BcB|(A2G)|F2G|A2B|cdc|
(B3/2A/2)G|BcB|(A2G)|F2G|A2B|cdc|(B3/2A/2)G-|G||


